X: 5
T: Saint Patrick's Day
R: jig
M: 6/8
L: 1/8
K: Fmaj
C2|F3 G F2 F2 G2 A2 |c3 d c2 c2 A2 F2 | G3 F G2 A2 F2 C2 | D3 E D2 D4 C C|F3 G F2 F2 G2 A2 | c3 d c2 c2 A2 F2 | G3 F G2 A2 F2 C2 | D4 E2 F4 c2 |c2 d2 e2 f4 d2| e4 c2 d4 A2 | c2 d2 e2 f2 e2 d2 | e2 d2 c2 d4 c c |c2 d2 e2 f4 d2 | e2 d2 c2 d4 ef | F3 G F2 F2 G2 A2 | c3 d c2 c2 A2 F2 |G3 F G2 A2 F2 C2 | D3 E D2 D4 C2 | F3 G F2 F2 G2 A2 | c3 d c2 c2 A2 F2 | G3 F G2 A2 F2 C2 | [D4B,4] [E2B2] [F4A,4] |]


Tune 385	Setting 21732

